; G-Code generated by Simplify3D(R) Version 4.1.2
; May 5, 2021 at 5:43:18 PM
; Settings Summary
;   processName,Process1
;   applyToModels,BLTouch
;   profileName,Anet A8 (modified)
;   profileVersion,2016-11-25 08:00:00
;   baseProfile,
;   printMaterial,PLA
;   printQuality,Medium
;   printExtruders,
;   extruderName,Primary Extruder
;   extruderToolheadNumber,0
;   extruderDiameter,0.4
;   extruderAutoWidth,1
;   extruderWidth,0.48
;   extrusionMultiplier,1.1
;   extruderUseRetract,1
;   extruderRetractionDistance,4
;   extruderExtraRestartDistance,0
;   extruderRetractionZLift,0
;   extruderRetractionSpeed,7500
;   extruderUseCoasting,0
;   extruderCoastingDistance,0.2
;   extruderUseWipe,0
;   extruderWipeDistance,5
;   primaryExtruder,0
;   layerHeight,0.2
;   topSolidLayers,5
;   bottomSolidLayers,5
;   perimeterOutlines,3
;   printPerimetersInsideOut,1
;   startPointOption,2
;   startPointOriginX,0
;   startPointOriginY,0
;   sequentialIslands,0
;   spiralVaseMode,0
;   firstLayerHeightPercentage,90
;   firstLayerWidthPercentage,100
;   firstLayerUnderspeed,0.5
;   useRaft,0
;   raftExtruder,0
;   raftTopLayers,3
;   raftBaseLayers,2
;   raftOffset,3
;   raftSeparationDistance,0.14
;   raftTopInfill,100
;   aboveRaftSpeedMultiplier,0.3
;   useSkirt,1
;   skirtExtruder,0
;   skirtLayers,2
;   skirtOutlines,20
;   skirtOffset,0
;   usePrimePillar,0
;   primePillarExtruder,999
;   primePillarWidth,12
;   primePillarLocation,7
;   primePillarSpeedMultiplier,1
;   useOozeShield,0
;   oozeShieldExtruder,999
;   oozeShieldOffset,2
;   oozeShieldOutlines,1
;   oozeShieldSidewallShape,1
;   oozeShieldSidewallAngle,30
;   oozeShieldSpeedMultiplier,1
;   infillExtruder,0
;   internalInfillPattern,Rectilinear
;   externalInfillPattern,Rectilinear
;   infillPercentage,25
;   outlineOverlapPercentage,25
;   infillExtrusionWidthPercentage,100
;   minInfillLength,5
;   infillLayerInterval,1
;   internalInfillAngles,45,-45
;   overlapInternalInfillAngles,0
;   externalInfillAngles,45,-45
;   generateSupport,0
;   supportExtruder,0
;   supportInfillPercentage,15
;   supportExtraInflation,0
;   supportBaseLayers,0
;   denseSupportExtruder,0
;   denseSupportLayers,0
;   denseSupportInfillPercentage,90
;   supportLayerInterval,1
;   supportHorizontalPartOffset,0.3
;   supportUpperSeparationLayers,2
;   supportLowerSeparationLayers,2
;   supportType,0
;   supportGridSpacing,6
;   maxOverhangAngle,60
;   supportAngles,0
;   temperatureName,Primary Extruder,Heated Bed
;   temperatureNumber,0,0
;   temperatureSetpointCount,1,1
;   temperatureSetpointLayers,1,1
;   temperatureSetpointTemperatures,225,80
;   temperatureStabilizeAtStartup,1,1
;   temperatureHeatedBed,0,1
;   fanLayers,1,2
;   fanSpeeds,0,100
;   blipFanToFullPower,0
;   adjustSpeedForCooling,1
;   minSpeedLayerTime,15
;   minCoolingSpeedSlowdown,20
;   increaseFanForCooling,0
;   minFanLayerTime,45
;   maxCoolingFanSpeed,100
;   increaseFanForBridging,0
;   bridgingFanSpeed,100
;   use5D,1
;   relativeEdistances,0
;   allowEaxisZeroing,1
;   independentExtruderAxes,0
;   includeM10123,0
;   stickySupport,1
;   applyToolheadOffsets,0
;   gcodeXoffset,0
;   gcodeYoffset,0
;   gcodeZoffset,0
;   overrideMachineDefinition,1
;   machineTypeOverride,0
;   strokeXoverride,220
;   strokeYoverride,220
;   strokeZoverride,200
;   originOffsetXoverride,0
;   originOffsetYoverride,0
;   originOffsetZoverride,0
;   homeXdirOverride,-1
;   homeYdirOverride,-1
;   homeZdirOverride,-1
;   flipXoverride,1
;   flipYoverride,-1
;   flipZoverride,1
;   toolheadOffsets,0,0|0,0|0,0|0,0|0,0|0,0
;   overrideFirmwareConfiguration,1
;   firmwareTypeOverride,RepRap (Marlin/Repetier/Sprinter)
;   GPXconfigOverride,r2
;   baudRateOverride,115200
;   overridePrinterModels,1
;   printerModelsOverride
;   startingGcode,;; hits for Thomas Sanlader,;; https://www.youtube.com/watch?v=fb3hrjEiE3s&ab_channel=ThomasSanladerer,;; start script,;; ------------,;P23 red,;P25 green,;P27 blue,M42 P23 S255 ; red LEDs on,M42 P25 S255 ; green LEDs on,M42 P27 S0 ; blue LEDs off,,;scripts start print,;scripts set temp,,M400,M42 P23 S255 ; red LEDs on,M42 P25 S255 ; green LEDs on,M42 P27 S255 ; blue LEDs on,G28 ; home all axes,G29 ; autolleveling,G1 X0 Y20 Z0.2 F3000 ; get ready to prime,G92 E0 ; reset extrusion distance,,M400,M42 P23 S255 ; red LEDs on,M42 P25 S255 ; green LEDs on,M42 P27 S255 ; blue LEDs on,,G1 X200 E20 F600 ; prime nozzle,M117 Imprimindo...,,
;   layerChangeGcode,
;   retractionGcode,
;   toolChangeGcode,
;   endingGcode,;; stop scripts,;; ------------,;script position head,G1 X0 Y200 F1000 ; prepare for part removal,,;green,M42 P23 S0    ; red LEDs off,M42 P25 S255  ; green LEDs on,M42 P27 S0    ; blue LEDs off,,M190 R30 ; wait for heatbed to cool to 30oC,,M104 S0 ; turn off extruder,M140 S0 ; turn off bed,,; blue,M400,M42 P25 S0,M42 P27 S255,,M84 ; disable motors,M107 P0 ; disable fan,,M117 Pronto...,,;wait,G4 S600,M400,M42 P27 S0
;   exportFileFormat,gcode
;   celebration,0
;   celebrationSong,Random Song
;   postProcessing,|{REPLACE "; layer" "M117 Layer "}|{REPLACE ", Z = " ",Z="}
;   defaultSpeed,3600
;   outlineUnderspeed,0.4
;   solidInfillUnderspeed,0.8
;   supportUnderspeed,0.8
;   rapidXYspeed,3600
;   rapidZspeed,1002
;   minBridgingArea,50
;   bridgingExtraInflation,0
;   bridgingExtrusionMultiplier,1
;   bridgingSpeedMultiplier,1
;   useFixedBridgingAngle,0
;   fixedBridgingAngle,0
;   applyBridgingToPerimeters,0
;   filamentDiameters,1.75|1.75|1.75|1.75|1.75|1.75
;   filamentPricesPerKg,130|46|46|46|46|46
;   filamentDensities,1.25|1.25|1.25|1.25|1.25|1.25
;   useMinPrintHeight,0
;   minPrintHeight,0
;   useMaxPrintHeight,0
;   maxPrintHeight,0
;   useDiaphragm,0
;   diaphragmLayerInterval,20
;   robustSlicing,1
;   mergeAllIntoSolid,0
;   onlyRetractWhenCrossingOutline,1
;   retractBetweenLayers,1
;   useRetractionMinTravel,0
;   retractionMinTravel,3
;   retractWhileWiping,0
;   onlyWipeOutlines,1
;   avoidCrossingOutline,0
;   maxMovementDetourFactor,3
;   toolChangeRetractionDistance,12
;   toolChangeExtraRestartDistance,-0.5
;   toolChangeRetractionSpeed,600
;   externalThinWallType,1
;   internalThinWallType,1
;   thinWallAllowedOverlapPercentage,20
;   singleExtrusionMinLength,1
;   singleExtrusionMinPrintingWidthPercentage,50
;   singleExtrusionMaxPrintingWidthPercentage,200
;   singleExtrusionEndpointExtension,0.2
;   horizontalSizeCompensation,0
G90
M82
M106 S0
M140 S80
M190 S80
M104 S225 T0
M109 S225 T0
;; hits for Thomas Sanlader
;; https://www.youtube.com/watch?v=fb3hrjEiE3s&ab_channel=ThomasSanladerer
;; start script
;; ------------
;P23 red
;P25 green
;P27 blue
M42 P23 S255 ; red LEDs on
M42 P25 S255 ; green LEDs on
M42 P27 S0 ; blue LEDs off
;scripts start print
;scripts set temp
M400
M42 P23 S255 ; red LEDs on
M42 P25 S255 ; green LEDs on
M42 P27 S255 ; blue LEDs on
G28 ; home all axes
G29 ; autolleveling
G1 X0 Y20 Z0.2 F3000 ; get ready to prime
G92 E0 ; reset extrusion distance
M400
M42 P23 S255 ; red LEDs on
M42 P25 S255 ; green LEDs on
M42 P27 S255 ; blue LEDs on
G1 X200 E20 F600 ; prime nozzle
M117 Imprimindo...
; process Process1
M117 Layer  1,Z=0.180
T0
G92 E0.0000
G1 E-4.0000 F7500
; feature skirt
; tool H0.180 W0.480
G1 Z0.180 F1002
G1 X92.123 Y88.640 F3600
G1 E0.0000 F7500
G92 E0.0000
G1 X127.877 Y88.640 E1.4127 F1800
G1 X133.360 Y94.123 E1.7191
G1 X133.360 Y117.307 E2.6352
G1 X133.320 Y117.919 E2.6594
G1 X133.030 Y120.124 E2.7473
G1 X132.712 Y121.309 E2.7958
G1 X131.743 Y123.649 E2.8959
G1 X131.129 Y124.712 E2.9444
G1 X129.588 Y126.720 E3.0444
G1 X128.720 Y127.588 E3.0929
G1 X126.712 Y129.129 E3.1929
G1 X125.649 Y129.743 E3.2414
G1 X123.309 Y130.712 E3.3415
G1 X122.124 Y131.030 E3.3900
G1 X119.919 Y131.320 E3.4779
G1 X119.307 Y131.360 E3.5021
G1 X100.693 Y131.360 E4.2376
G1 X100.081 Y131.320 E4.2618
G1 X97.876 Y131.030 E4.3497
G1 X96.691 Y130.712 E4.3981
G1 X94.351 Y129.743 E4.4982
G1 X93.288 Y129.129 E4.5467
G1 X91.280 Y127.588 E4.6467
G1 X90.412 Y126.720 E4.6952
G1 X88.871 Y124.712 E4.7953
G1 X88.257 Y123.649 E4.8437
G1 X87.288 Y121.309 E4.9438
G1 X86.970 Y120.124 E4.9923
G1 X86.680 Y117.919 E5.0802
G1 X86.640 Y117.307 E5.1044
G1 X86.640 Y94.123 E6.0205
G1 X92.123 Y88.640 E6.3269
G92 E0.0000
G1 E-4.0000 F7500
G1 X92.322 Y89.120 F3600
G1 E0.0000 F7500
G92 E0.0000
G1 X127.678 Y89.120 E1.3970 F1800
G1 X132.880 Y94.322 E1.6877
G1 X132.880 Y117.291 E2.5953
G1 X132.842 Y117.872 E2.6183
G1 X132.558 Y120.030 E2.7043
G1 X132.257 Y121.154 E2.7503
G1 X131.311 Y123.436 E2.8479
G1 X130.729 Y124.445 E2.8939
G1 X129.226 Y126.403 E2.9914
G1 X128.403 Y127.226 E3.0374
G1 X126.444 Y128.729 E3.1350
G1 X125.436 Y129.311 E3.1810
G1 X123.154 Y130.257 E3.2786
G1 X122.030 Y130.558 E3.3246
G1 X119.871 Y130.842 E3.4106
G1 X119.291 Y130.880 E3.4336
G1 X100.709 Y130.880 E4.1678
G1 X100.129 Y130.842 E4.1908
G1 X97.970 Y130.558 E4.2768
G1 X96.846 Y130.257 E4.3228
G1 X94.564 Y129.311 E4.4204
G1 X93.556 Y128.729 E4.4664
G1 X91.597 Y127.226 E4.5640
G1 X90.774 Y126.403 E4.6100
G1 X89.271 Y124.444 E4.7075
G1 X88.689 Y123.436 E4.7535
G1 X87.743 Y121.154 E4.8511
G1 X87.442 Y120.030 E4.8971
G1 X87.158 Y117.872 E4.9831
G1 X87.120 Y117.291 E5.0061
G1 X87.120 Y94.322 E5.9137
G1 X92.322 Y89.120 E6.2044
G92 E0.0000
G1 E-4.0000 F7500
G1 X92.521 Y89.600 F3600
G1 E0.0000 F7500
G92 E0.0000
G1 X127.479 Y89.600 E1.3813 F1800
G1 X132.400 Y94.521 E1.6563
G1 X132.400 Y117.276 E2.5554
G1 X132.364 Y117.824 E2.5771
G1 X132.086 Y119.936 E2.6613
G1 X131.801 Y121.000 E2.7048
G1 X130.880 Y123.224 E2.7999
G1 X130.329 Y124.177 E2.8434
G1 X128.865 Y126.086 E2.9385
G1 X128.086 Y126.865 E2.9820
G1 X126.177 Y128.329 E3.0771
G1 X125.224 Y128.880 E3.1206
G1 X123.000 Y129.801 E3.2157
G1 X121.936 Y130.086 E3.2592
G1 X119.824 Y130.364 E3.3434
G1 X119.276 Y130.400 E3.3651
G1 X100.724 Y130.400 E4.0981
G1 X100.176 Y130.364 E4.1198
G1 X98.064 Y130.086 E4.2040
G1 X97.000 Y129.801 E4.2475
G1 X94.776 Y128.880 E4.3426
G1 X93.823 Y128.329 E4.3861
G1 X91.914 Y126.865 E4.4812
G1 X91.135 Y126.086 E4.5247
G1 X89.671 Y124.177 E4.6198
G1 X89.120 Y123.224 E4.6633
G1 X88.199 Y121.000 E4.7584
G1 X87.914 Y119.936 E4.8019
G1 X87.636 Y117.824 E4.8861
G1 X87.600 Y117.276 E4.9078
G1 X87.600 Y94.521 E5.8069
G1 X92.521 Y89.600 E6.0819
G92 E0.0000
G1 E-4.0000 F7500
G1 X92.719 Y90.080 F3600
G1 E0.0000 F7500
G92 E0.0000
G1 X127.281 Y90.080 E1.3656 F1800
G1 X131.920 Y94.719 E1.6249
G1 X131.920 Y117.260 E2.5155
G1 X131.886 Y117.777 E2.5360
G1 X131.614 Y119.842 E2.6183
G1 X131.346 Y120.845 E2.6593
G1 X130.448 Y123.011 E2.7519
G1 X129.929 Y123.910 E2.7930
G1 X128.503 Y125.769 E2.8855
G1 X127.769 Y126.503 E2.9266
G1 X125.910 Y127.929 E3.0191
G1 X125.011 Y128.448 E3.0602
G1 X122.845 Y129.346 E3.1528
G1 X121.842 Y129.614 E3.1938
G1 X119.777 Y129.886 E3.2761
G1 X119.260 Y129.920 E3.2966
G1 X100.740 Y129.920 E4.0284
G1 X100.223 Y129.886 E4.0489
G1 X98.158 Y129.614 E4.1312
G1 X97.155 Y129.346 E4.1722
G1 X94.989 Y128.448 E4.2648
G1 X94.090 Y127.929 E4.3058
G1 X92.231 Y126.503 E4.3984
G1 X91.497 Y125.769 E4.4394
G1 X90.071 Y123.910 E4.5320
G1 X89.552 Y123.011 E4.5730
G1 X88.654 Y120.845 E4.6657
G1 X88.386 Y119.842 E4.7067
G1 X88.114 Y117.777 E4.7890
G1 X88.080 Y117.260 E4.8095
G1 X88.080 Y94.719 E5.7001
G1 X92.719 Y90.080 E5.9594
G92 E0.0000
G1 E-4.0000 F7500
G1 X92.918 Y90.560 F3600
G1 E0.0000 F7500
G92 E0.0000
G1 X127.082 Y90.560 E1.3499 F1800
G1 X131.440 Y94.918 E1.5934
G1 X131.440 Y117.244 E2.4756
G1 X131.408 Y117.730 E2.4949
G1 X131.142 Y119.748 E2.5753
G1 X130.890 Y120.690 E2.6138
G1 X130.017 Y122.798 E2.7040
G1 X129.529 Y123.643 E2.7425
G1 X128.141 Y125.452 E2.8326
G1 X127.452 Y126.141 E2.8711
G1 X125.643 Y127.529 E2.9612
G1 X124.798 Y128.017 E2.9998
G1 X122.690 Y128.890 E3.0899
G1 X121.748 Y129.142 E3.1284
G1 X119.730 Y129.408 E3.2089
G1 X119.244 Y129.440 E3.2281
G1 X100.756 Y129.440 E3.9586
G1 X100.270 Y129.408 E3.9779
G1 X98.252 Y129.142 E4.0583
G1 X97.310 Y128.890 E4.0969
G1 X95.202 Y128.017 E4.1870
G1 X94.357 Y127.529 E4.2255
G1 X92.548 Y126.141 E4.3156
G1 X91.859 Y125.452 E4.3542
G1 X90.471 Y123.643 E4.4443
G1 X89.983 Y122.798 E4.4828
G1 X89.110 Y120.690 E4.5729
G1 X88.858 Y119.748 E4.6115
G1 X88.592 Y117.730 E4.6919
G1 X88.560 Y117.244 E4.7112
G1 X88.560 Y94.918 E5.5933
G1 X92.918 Y90.560 E5.8369
G92 E0.0000
G1 E-4.0000 F7500
G1 X93.117 Y91.040 F3600
G1 E0.0000 F7500
G92 E0.0000
G1 X126.883 Y91.040 E1.3342 F1800
G1 X130.960 Y95.117 E1.5620
G1 X130.960 Y117.228 E2.4357
G1 X130.930 Y117.683 E2.4537
G1 X130.671 Y119.654 E2.5323
G1 X130.435 Y120.536 E2.5683
G1 X129.586 Y122.585 E2.6560
G1 X129.129 Y123.375 E2.6920
G1 X127.780 Y125.134 E2.7796
G1 X127.134 Y125.780 E2.8157
G1 X125.375 Y127.129 E2.9033
G1 X124.585 Y127.586 E2.9393
G1 X122.536 Y128.435 E3.0270
G1 X121.654 Y128.671 E3.0631
G1 X119.683 Y128.930 E3.1416
G1 X119.228 Y128.960 E3.1596
G1 X100.772 Y128.960 E3.8889
G1 X100.317 Y128.930 E3.9069
G1 X98.346 Y128.671 E3.9855
G1 X97.464 Y128.435 E4.0215
G1 X95.415 Y127.586 E4.1092
G1 X94.625 Y127.129 E4.1452
G1 X92.866 Y125.780 E4.2328
G1 X92.220 Y125.134 E4.2689
G1 X90.871 Y123.375 E4.3565
G1 X90.414 Y122.585 E4.3926
G1 X89.565 Y120.536 E4.4802
G1 X89.329 Y119.654 E4.5163
G1 X89.070 Y117.683 E4.5948
G1 X89.040 Y117.228 E4.6128
G1 X89.040 Y95.117 E5.4865
G1 X93.117 Y91.040 E5.7143
G92 E0.0000
G1 E-4.0000 F7500
G1 X93.316 Y91.520 F3600
G1 E0.0000 F7500
G92 E0.0000
G1 X126.684 Y91.520 E1.3185 F1800
G1 X130.480 Y95.316 E1.5306
G1 X130.480 Y117.213 E2.3958
G1 X130.452 Y117.636 E2.4126
G1 X130.199 Y119.561 E2.4893
G1 X129.979 Y120.381 E2.5228
G1 X129.154 Y122.373 E2.6080
G1 X128.729 Y123.108 E2.6416
G1 X127.418 Y124.817 E2.7267
G1 X126.817 Y125.418 E2.7603
G1 X125.108 Y126.729 E2.8454
G1 X124.373 Y127.154 E2.8789
G1 X122.381 Y127.979 E2.9641
G1 X121.561 Y128.199 E2.9977
G1 X119.636 Y128.452 E3.0744
G1 X119.213 Y128.480 E3.0911
G1 X100.787 Y128.480 E3.8192
G1 X100.364 Y128.452 E3.8359
G1 X98.439 Y128.199 E3.9126
G1 X97.619 Y127.979 E3.9462
G1 X95.627 Y127.154 E4.0314
G1 X94.892 Y126.729 E4.0649
G1 X93.183 Y125.418 E4.1501
G1 X92.582 Y124.817 E4.1836
G1 X91.271 Y123.108 E4.2688
G1 X90.846 Y122.373 E4.3023
G1 X90.021 Y120.381 E4.3875
G1 X89.801 Y119.561 E4.4210
G1 X89.548 Y117.636 E4.4978
G1 X89.520 Y117.213 E4.5145
G1 X89.520 Y95.316 E5.3797
G1 X93.316 Y91.520 E5.5918
G92 E0.0000
G1 E-4.0000 F7500
G1 X93.515 Y92.000 F3600
G1 E0.0000 F7500
G92 E0.0000
G1 X126.485 Y92.000 E1.3028 F1800
G1 X130.000 Y95.515 E1.4992
G1 X130.000 Y117.197 E2.3559
G1 X129.974 Y117.589 E2.3714
G1 X129.727 Y119.467 E2.4463
G1 X129.523 Y120.227 E2.4773
G1 X128.723 Y122.160 E2.5600
G1 X128.329 Y122.841 E2.5911
G1 X127.056 Y124.500 E2.6737
G1 X126.500 Y125.056 E2.7048
G1 X124.841 Y126.329 E2.7875
G1 X124.160 Y126.723 E2.8185
G1 X122.227 Y127.523 E2.9012
G1 X121.467 Y127.727 E2.9323
G1 X119.589 Y127.974 E3.0071
G1 X119.197 Y128.000 E3.0227
G1 X100.803 Y128.000 E3.7494
G1 X100.411 Y127.974 E3.7650
G1 X98.533 Y127.727 E3.8398
G1 X97.773 Y127.523 E3.8709
G1 X95.840 Y126.723 E3.9536
G1 X95.159 Y126.329 E3.9846
G1 X93.500 Y125.056 E4.0673
G1 X92.944 Y124.500 E4.0984
G1 X91.671 Y122.841 E4.1810
G1 X91.277 Y122.160 E4.2121
G1 X90.477 Y120.227 E4.2948
G1 X90.273 Y119.467 E4.3258
G1 X90.026 Y117.589 E4.4007
G1 X90.000 Y117.197 E4.4162
G1 X90.000 Y95.515 E5.2729
G1 X93.515 Y92.000 E5.4693
G92 E0.0000
G1 E-4.0000 F7500
G1 X93.714 Y92.480 F3600
G1 E0.0000 F7500
G92 E0.0000
G1 X126.286 Y92.480 E1.2871 F1800
G1 X129.520 Y95.714 E1.4677
G1 X129.520 Y117.181 E2.3160
G1 X129.496 Y117.542 E2.3303
G1 X129.255 Y119.373 E2.4033
G1 X129.068 Y120.072 E2.4318
